X:1
T:Tommy Maguire's
L:1/8
M:4/4
I:linebreak $
K:D
V:1 treble 
V:1
 FBAF EFDe | fded BdAG | FA A2 eAfA | gfed (3Bcd AG | FAdA FADG |$ G2 BG EFDE | CDB,C A,2 ag |1 %7
 fdec dcBA :|2 fedc dcBc || d2 fd adfd |$ egfd edBd | AB^GB A3 e | cAec AecA | d2 fd adfd | %14
 (3Bcd ef g3 b | afge fded |$ cAGE D4 :| %17
